src/images/logo.svg

<svg width="1335" height="217" viewBox="0 0 1335 217" fill="none" xmlns="http://www.w3.org/2000/svg">
<path d="M221.691 216H238.611V213.92H223.971V203.36H238.331V201.28H223.971V191.4H238.611V189.32H221.691V216Z" fill="#ABABAB"/>
<path d="M279.149 216H281.989L271.269 202.28L281.389 189.32H278.509L269.829 200.64L261.189 189.32H258.269L268.429 202.32L257.669 216H260.549L269.829 203.96L279.149 216Z" fill="#ABABAB"/>
<path d="M302.05 216H304.33V204.92H312.05C317.13 204.92 320.09 201.32 320.09 197.12C320.09 192.92 317.17 189.32 312.05 189.32H302.05V216ZM317.69 197.12C317.69 200.48 315.33 202.84 311.81 202.84H304.33V191.4H311.81C315.33 191.4 317.69 193.76 317.69 197.12Z" fill="#ABABAB"/>
<path d="M340.902 216H357.822V213.92H343.182V203.36H357.542V201.28H343.182V191.4H357.822V189.32H340.902V216Z" fill="#ABABAB"/>
<path d="M395.12 216H397.88L390.16 204.8C394.12 204.64 397.56 201.96 397.56 197.12C397.56 192.24 394.04 189.32 389.44 189.32H379.48V216H381.76V204.96H387.64L395.12 216ZM395.16 197.12C395.16 200.48 392.76 202.88 389.24 202.88H381.76V191.4H389.24C392.76 191.4 395.16 193.76 395.16 197.12Z" fill="#ABABAB"/>
<path d="M419.23 216H421.51V189.32H419.23V216Z" fill="#ABABAB"/>
<path d="M444.136 216H461.056V213.92H446.416V203.36H460.776V201.28H446.416V191.4H461.056V189.32H444.136V216Z" fill="#ABABAB"/>
<path d="M501.794 216H504.034V189.32H501.754V212.04L485.034 189.32H482.714V216H484.994V192.96L501.794 216Z" fill="#ABABAB"/>
<path d="M539.123 216.48C543.443 216.48 546.563 214.64 548.923 211.72L547.003 210.52C545.323 212.84 542.403 214.4 539.123 214.4C532.923 214.4 528.083 209.56 528.083 202.68C528.083 195.72 532.923 190.96 539.123 190.96C542.403 190.96 545.323 192.52 547.003 194.84L548.923 193.6C546.643 190.76 543.443 188.88 539.123 188.88C531.643 188.88 525.683 194.48 525.683 202.68C525.683 210.88 531.643 216.48 539.123 216.48Z" fill="#ABABAB"/>
<path d="M569.558 216H586.478V213.92H571.838V203.36H586.198V201.28H571.838V191.4H586.478V189.32H569.558V216Z" fill="#ABABAB"/>
<path d="M634.488 216H636.768V189.32H634.488V216Z" fill="#ABABAB"/>
<path d="M657.914 212.24C659.954 214.72 663.274 216.48 667.674 216.48C674.874 216.48 677.154 212.36 677.154 208.92C677.154 203.52 672.434 202.16 668.114 200.92C664.474 199.96 661.154 199.04 661.154 195.88C661.154 193 663.834 190.96 667.394 190.96C670.394 190.96 673.114 192 675.034 194.32L676.554 192.64C674.474 190.28 671.514 188.88 667.514 188.88C662.674 188.88 658.754 191.64 658.754 196C658.754 200.92 663.234 202.12 667.434 203.28C671.194 204.28 674.754 205.32 674.754 209.08C674.754 211.36 673.194 214.4 667.714 214.4C663.914 214.4 661.114 212.52 659.394 210.52L657.914 212.24Z" fill="#ABABAB"/>
<path d="M724.988 216H741.908V213.92H727.268V203.36H741.628V201.28H727.268V191.4H741.908V189.32H724.988V216Z" fill="#ABABAB"/>
<path d="M771.766 216H774.606L785.526 189.32H782.886L773.166 213.44L763.486 189.32H760.846L771.766 216Z" fill="#ABABAB"/>
<path d="M805.464 216H822.384V213.92H807.744V203.36H822.104V201.28H807.744V191.4H822.384V189.32H805.464V216Z" fill="#ABABAB"/>
<path d="M859.682 216H862.443L854.722 204.8C858.682 204.64 862.122 201.96 862.122 197.12C862.122 192.24 858.603 189.32 854.003 189.32H844.042V216H846.322V204.96H852.202L859.682 216ZM859.722 197.12C859.722 200.48 857.322 202.88 853.802 202.88H846.322V191.4H853.802C857.322 191.4 859.722 193.76 859.722 197.12Z" fill="#ABABAB"/>
<path d="M891.087 216H893.407V204.6L904.007 189.32H901.247L892.247 202.44L883.247 189.32H880.487L891.087 204.6V216Z" fill="#ABABAB"/>
<path d="M930.733 216H933.053V191.4H941.773V189.32H922.013V191.4H930.733V216Z" fill="#ABABAB"/>
<path d="M981.711 216H984.031V189.32H981.711V201.24H964.791V189.32H962.511V216H964.791V203.32H981.711V216Z" fill="#ABABAB"/>
<path d="M1006.64 216H1008.92V189.32H1006.64V216Z" fill="#ABABAB"/>
<path d="M1050.62 216H1052.86V189.32H1050.58V212.04L1033.86 189.32H1031.54V216H1033.82V192.96L1050.62 216Z" fill="#ABABAB"/>
<path d="M1074.51 202.68C1074.51 210.92 1080.55 216.52 1088.03 216.52C1092.23 216.52 1095.79 214.72 1098.15 212.08V202.76H1085.79V204.8H1095.87V211.2C1094.39 212.68 1091.59 214.44 1088.03 214.44C1081.75 214.44 1076.91 209.56 1076.91 202.68C1076.91 195.72 1081.75 190.96 1088.03 190.96C1091.43 190.96 1094.47 192.44 1096.35 194.68L1098.07 193.44C1095.63 190.64 1092.43 188.88 1088.03 188.88C1080.55 188.88 1074.51 194.44 1074.51 202.68Z" fill="#ABABAB"/>
<path d="M1261.73 126.88C1253 127.043 1244.37 124.901 1236.73 120.67C1230.48 117.12 1226.91 114.46 1217.1 106.47L1206.39 139.3L1175.16 94.05C1182.3 91.39 1187.65 89.61 1191.22 86.95C1198.72 82.1555 1204.39 74.9617 1207.28 66.54C1209.07 75.41 1212.64 82.54 1218.88 87.83C1226.88 94.93 1241.19 101.14 1257.25 103.83L1263.5 104.72C1275.99 106.49 1280.45 110.04 1280.45 115.37C1280.47 122.44 1273.34 126.88 1261.73 126.88ZM1135 75.42H1124.29V41.7H1133.21C1145.7 41.7 1153.73 47.91 1153.73 58.56C1154.66 69.21 1146.63 75.42 1135 75.42ZM85.66 112.68C80.31 117.12 72.28 120.68 66.03 120.68H55.32V50.57H64.24C82.09 50.57 94.58 64.77 94.58 85.17C94.59 97.6 91.91 106.47 85.66 112.68ZM1319.74 75.42C1314.38 70.98 1313.49 70.1 1309.03 68.32C1306.35 67.43 1305.46 67.43 1303.67 66.55C1300.1 64.78 1292.07 63 1277.8 60.34H1276.9C1267.09 58.57 1262.63 55.02 1262.63 48.81C1262.63 43.49 1267.09 39.94 1276.01 39.94C1286.72 39.94 1294.75 42.6 1312.6 49.7L1326.87 12.43C1306.35 3.55 1293.86 0 1278.69 0C1243 0 1217.12 16 1210 42.59C1206.43 17.75 1186.8 5.32 1153.78 5.32H1069.91V126H1001.2V105.58H1046.71V65.66H1001.2V45.25H1055.63V5.32H738.84V84.32H737.95L692.44 5.32H580.9L559.48 48.8L538.07 5.32H443.48L423 90.5H422.11L401.54 5.32H354.25L332.83 90.5H331.94L311.42 5.32H150.8V71.87C145.45 31.94 115.11 6.21 73.17 6.21H0V165.92H74.06C116 165.92 145.45 139.3 150.8 99.38V165.92H267.7V126.92H206.13V106.47H251.64V65.66H206.13V45.25H267.7L300.7 165.03H356L377.42 73.64H378.31L398.86 165H454.18L490.77 30.17L533.6 94.94V165H588.92V94.94L638 19.52V165.92H693.32V87H694.21L739.72 166H795.04V45.25H845.04V165.92H899.47V45.25H946.76V165.92H1126.1V103.81H1127L1160.9 165.92H1226L1218.86 156.16C1220.87 157.208 1222.96 158.097 1225.11 158.82C1239.39 165.92 1252.77 169.47 1267.05 169.47C1306.31 169.47 1334.87 144.63 1334.87 110.02C1333.12 94.94 1329.55 84.29 1319.74 75.42Z" fill="#00E4E1"/>
</svg>

<svg id="Layer_1" data-name="Layer 1" xmlns="http://www.w3.org/2000/svg" viewBox="0 0 1334.87 216.52"><title>logo</title><path d="M221.69,216h16.92v-2.08H224V203.36h14.36v-2.08H224V191.4h14.64v-2.08H221.69Z" style="fill:#ababab"/><path d="M279.15,216H282l-10.72-13.72,10.12-13h-2.88l-8.68,11.32-8.64-11.32h-2.92l10.16,13L257.67,216h2.88l9.28-12Z" style="fill:#ababab"/><path d="M302,216h2.28V204.92H312a7.6,7.6,0,0,0,8-7.8c0-4.2-2.92-7.8-8-7.8H302Zm15.64-18.88a5.52,5.52,0,0,1-5.88,5.72h-7.48V191.4h7.48A5.52,5.52,0,0,1,317.69,197.12Z" style="fill:#ababab"/><path d="M340.9,216h16.92v-2.08H343.18V203.36h14.36v-2.08H343.18V191.4h14.64v-2.08H340.9Z" style="fill:#ababab"/><path d="M395.12,216h2.76l-7.72-11.2a7.35,7.35,0,0,0,7.4-7.68c0-4.88-3.52-7.8-8.12-7.8h-10V216h2.28V205h5.88Zm0-18.88a5.59,5.59,0,0,1-5.92,5.76h-7.48V191.4h7.48A5.56,5.56,0,0,1,395.16,197.12Z" style="fill:#ababab"/><path d="M419.23,216h2.28V189.32h-2.28Z" style="fill:#ababab"/><path d="M444.14,216h16.92v-2.08H446.42V203.36h14.36v-2.08H446.42V191.4h14.64v-2.08H444.14Z" style="fill:#ababab"/><path d="M501.79,216H504V189.32h-2.28V212L485,189.32h-2.32V216H485V193Z" style="fill:#ababab"/><path d="M539.12,216.48a12,12,0,0,0,9.8-4.76l-1.92-1.2a9.74,9.74,0,0,1-7.88,3.88c-6.2,0-11-4.84-11-11.72s4.84-11.72,11-11.72a9.74,9.74,0,0,1,7.88,3.88l1.92-1.24a12.08,12.08,0,0,0-9.8-4.72c-7.48,0-13.44,5.6-13.44,13.8S531.64,216.48,539.12,216.48Z" style="fill:#ababab"/><path d="M569.56,216h16.92v-2.08H571.84V203.36H586.2v-2.08H571.84V191.4h14.64v-2.08H569.56Z" style="fill:#ababab"/><path d="M634.49,216h2.28V189.32h-2.28Z" style="fill:#ababab"/><path d="M657.91,212.24a12.27,12.27,0,0,0,9.76,4.24c7.2,0,9.48-4.12,9.48-7.56,0-5.4-4.72-6.76-9-8-3.64-1-7-1.88-7-5,0-2.88,2.68-4.92,6.24-4.92a9.56,9.56,0,0,1,7.64,3.36l1.52-1.68a11.46,11.46,0,0,0-9-3.76c-4.84,0-8.76,2.76-8.76,7.12,0,4.92,4.48,6.12,8.68,7.28,3.76,1,7.32,2,7.32,5.8,0,2.28-1.56,5.32-7,5.32a10.87,10.87,0,0,1-8.32-3.88Z" style="fill:#ababab"/><path d="M725,216h16.92v-2.08H727.27V203.36h14.36v-2.08H727.27V191.4h14.64v-2.08H725Z" style="fill:#ababab"/><path d="M771.77,216h2.84l10.92-26.68h-2.64l-9.72,24.12-9.68-24.12h-2.64Z" style="fill:#ababab"/><path d="M805.46,216h16.92v-2.08H807.74V203.36H822.1v-2.08H807.74V191.4h14.64v-2.08H805.46Z" style="fill:#ababab"/><path d="M859.68,216h2.76l-7.72-11.2a7.35,7.35,0,0,0,7.4-7.68c0-4.88-3.52-7.8-8.12-7.8H844V216h2.28V205h5.88Zm0-18.88a5.59,5.59,0,0,1-5.92,5.76h-7.48V191.4h7.48A5.56,5.56,0,0,1,859.72,197.12Z" style="fill:#ababab"/><path d="M891.09,216h2.32V204.6L904,189.32h-2.76l-9,13.12-9-13.12h-2.76l10.6,15.28Z" style="fill:#ababab"/><path d="M930.73,216h2.32V191.4h8.72v-2.08H922v2.08h8.72Z" style="fill:#ababab"/><path d="M981.71,216H984V189.32h-2.32v11.92H964.79V189.32h-2.28V216h2.28V203.32h16.92Z" style="fill:#ababab"/><path d="M1006.64,216h2.28V189.32h-2.28Z" style="fill:#ababab"/><path d="M1050.62,216h2.24V189.32h-2.28V212l-16.72-22.72h-2.32V216h2.28V193Z" style="fill:#ababab"/><path d="M1074.51,202.68c0,8.24,6,13.84,13.52,13.84a13.47,13.47,0,0,0,10.12-4.44v-9.32h-12.36v2h10.08v6.4a11.35,11.35,0,0,1-7.84,3.24c-6.28,0-11.12-4.88-11.12-11.76S1081.75,191,1088,191a10.87,10.87,0,0,1,8.32,3.72l1.72-1.24a12.67,12.67,0,0,0-10-4.56C1080.55,188.88,1074.51,194.44,1074.51,202.68Z" style="fill:#ababab"/><path d="M1261.73,126.88a49.71,49.71,0,0,1-25-6.21c-6.25-3.55-9.82-6.21-19.63-14.2l-10.71,32.83-31.23-45.25c7.14-2.66,12.49-4.44,16.06-7.1a39.43,39.43,0,0,0,16.06-20.41c1.79,8.87,5.36,16,11.6,21.29,8,7.1,22.31,13.31,38.37,16l6.25.89c12.49,1.77,16.95,5.32,16.95,10.65C1280.47,122.44,1273.34,126.88,1261.73,126.88ZM1135,75.42h-10.71V41.7h8.92c12.49,0,20.52,6.21,20.52,16.86C1154.66,69.21,1146.63,75.42,1135,75.42ZM85.66,112.68c-5.35,4.44-13.38,8-19.63,8H55.32V50.57h8.92c17.85,0,30.34,14.2,30.34,34.6C94.59,97.6,91.91,106.47,85.66,112.68ZM1319.74,75.42c-5.36-4.44-6.25-5.32-10.71-7.1-2.68-.89-3.57-.89-5.36-1.77-3.57-1.77-11.6-3.55-25.87-6.21h-.9c-9.81-1.77-14.27-5.32-14.27-11.53,0-5.32,4.46-8.87,13.38-8.87,10.71,0,18.74,2.66,36.59,9.76l14.27-37.27C1306.35,3.55,1293.86,0,1278.69,0,1243,0,1217.12,16,1210,42.59c-3.57-24.84-23.2-37.27-56.22-37.27h-83.87V126H1001.2V105.58h45.51V65.66H1001.2V45.25h54.43V5.32H738.84v79H738l-45.51-79H580.9L559.48,48.8,538.07,5.32H443.48L423,90.5h-.89L401.54,5.32H354.25L332.83,90.5h-.89L311.42,5.32H150.8V71.87C145.45,31.94,115.11,6.21,73.17,6.21H0V165.92H74.06c41.94,0,71.39-26.62,76.74-66.54v66.54H267.7v-39H206.13V106.47h45.51V65.66H206.13V45.25H267.7L300.7,165H356l21.42-91.39h.89L398.86,165h55.32L490.77,30.17,533.6,94.94V165h55.32V94.94L638,19.52v146.4h55.32V87h.89l45.51,79H795V45.25h50V165.92h54.43V45.25h47.29V165.92H1126.1V103.81h.9l33.9,62.11H1226l-7.14-9.76a43.53,43.53,0,0,0,6.25,2.66c14.28,7.1,27.66,10.65,41.94,10.65,39.26,0,67.82-24.84,67.82-59.45C1333.12,94.94,1329.55,84.29,1319.74,75.42Z" style="fill:#00e4e1"/></svg>
